X: 14712
T: Gan Ainm
R: barndance
M: 4/4
K: Gmajor
|:dc B2 gf e2|d^cdB G2 B2|A^GAF D2 EF|GABc d2 d2|
dc B2 gf e2|d^cdB G2 B2|A^GAF D2 EF|G2 g2 G2:|
|:Agge e^ccA|Affd dAAF|Gee^c A2 B^c|defg a2 a2|
Agge e^ccA|Affd dAAF|Gee^c A2 B^c|d2 d2 d2:|

